X:1
T: The Bridge of Turk
C:
R:Reel
Q: 232
K:G
M:4/4
L:1/8
c|:B2G2 G2A2|G2A2 G2c2|B2G2 G2B2|g2d2 e2c2|
B2G2 G2A2|G2A2 G2_B2|A2=F2 F2A2|c6A2|
B2d2 d2e2|d2e2 d2c2|B2d2 d2e2|g2d2 e2c2|
|1B2d2 d2e2|d2e2 d2B2|A2=F2 F2A2|c6A2:|
|2g2b2 e2g2|d2g2 B2d2|A2=F2 F2A2|c6c||G4|
